!!!COM: Paul Hindemith
!!!OTL: [T649_Hin-w70p62h1m1-16]
**kern	**dynam	**kern	**dynam	**kern	**dynam	**kern	**dynam	**kern	**dynam	**kern	**dynam	**kern	**dynam	**kern	**dynam	**kern	**dynam	**kern	**dynam	**kern	**dynam	**kern	**dynam
*grp:A	*	*grp:A	*	*grp:A	*	*grp:B	*	*grp:B	*	*grp:B	*	*grp:A	*	*grp:A	*	*grp:A	*	*grp:A	*	*grp:A	*	*grp:A	*
*part12	*part12	*part11	*part11	*part10	*part12	*part9	*part9	*part8	*part8	*part7	*part7	*part6	*part6	*part5	*part5	*part4	*part4	*part3	*part3	*part2	*part2	*part1	*part1
*staff12	*	*staff11	*	*staff10	*	*staff9	*	*staff8	*	*staff7	*	*staff6	*	*staff5	*	*staff4	*	*staff3	*	*staff2	*	*staff1	*
*I"Contrabass	*	*I"Violoncello	*	*I"Viola	*	*I"Violin II	*	*I"Violin I	*	*I"Solo Violin	*	*I"Triangle	*	*I"Bassoon 2.	*	*I"Bassoon 1.	*	*I"Bass Clarinet [C]	*	*I"Clarinet in Bb 2.	*	*I"Clarinet in Bb 1.	*
*I'Cb.	*	*I'Vc.	*	*I'Vla.	*	*I'Vln. II	*	*I'Vln. I	*	*I'Vln.	*	*I'Tri.	*	*I'Bsn. II	*	*I'Bsn. I	*	*I'B. Cl.	*	*I'Cl. II	*	*I'Cl. I	*
*ICstr	*	*ICstr	*	*ICstr	*	*ICstr	*	*ICstr	*	*ICstr	*	*ICidio	*	*ICww	*	*ICww	*	*ICww	*	*ICww	*	*ICww	*
*Icbass	*	*Icello	*	*Iviola	*	*Ivioln	*	*Ivioln	*	*Ivioln	*	*Itrngl	*	*Ifagot	*	*Ifagot	*	*Iclarb	*	*Iclars	*	*Iclars	*
*	*	*	*	*	*	*	*	*	*	*	*	*stria1	*	*	*	*	*	*	*	*	*	*	*
*clefF4	*	*clefF4	*	*clefC3	*	*clefG2	*	*clefG2	*	*clefG2	*	*clefX	*	*clefC4	*	*clefC4	*	*clefG2	*	*clefG2	*	*clefG2	*
*ITrd7c12	*	*	*	*	*	*	*	*	*	*	*	*	*	*	*	*	*	*ITrd1c2	*	*ITrd1c2	*	*ITrd1c2	*
*k[]	*	*k[]	*	*k[]	*	*k[]	*	*k[]	*	*k[]	*	*k[]	*	*k[]	*	*k[]	*	*k[0]	*	*k[b-e-]	*	*k[b-e-]	*
*	*	*	*	*	*	*	*	*	*	*	*	*C:	*	*	*	*	*	*	*	*	*	*	*
*M2/4	*	*M2/4	*	*M2/4	*	*M2/4	*	*M2/4	*	*M2/4	*	*M2/4	*	*M2/4	*	*M2/4	*	*M2/4	*	*M2/4	*	*M2/4	*
!!LO:REH:t=1
=1	=1	=1	=1	=1	=1	=1	=1	=1	=1	=1	=1	=1	=1	=1	=1	=1	=1	=1	=1	=1	=1	=1	=1
!	!LO:DY:ed=brack	!	!LO:DY:ed=brack	!	!LO:DY:ed=brack	!	!	!	!	!	!	!	!	!	!	!	!	!	!	!	!	!LO:TX:t=[[quarter]=152]	!
8ryy	4ryy	8ryy	4ryy	8ryy	4ryy	2r	.	2r	.	[2ddd-X	4ryy	2ryy	.	2ryy	.	8ryy	4ryy	8ryy	4ryy	8ryy	4ryy	8ryy	4ryy
8ryy	.	8ryy	.	8ryy	.	.	.	.	.	.	.	.	.	.	.	8ryy	.	8ryy	.	8ryy	.	8ryy	.
4ryy	.	4ryy	.	4ryy	.	.	.	.	.	.	.	.	.	.	.	8ryy	.	8ryy	.	8ryy	.	8ryy	.
.	.	.	.	.	.	.	.	.	.	.	.	.	.	.	.	8ryy	.	8ryy	.	8ryy	.	8ryy	.
=2	=2	=2	=2	=2	=2	=2	=2	=2	=2	=2	=2	=2	=2	=2	=2	=2	=2	=2	=2	=2	=2	=2	=2
2ryy	.	2ryy	.	2ryy	.	2r	.	2r	.	4ddd-]	.	2ryy	.	2ryy	.	8ryy	.	8ryy	.	8ryy	.	8ryy	.
.	.	.	.	.	.	.	.	.	.	.	.	.	.	.	.	8r'yy	.	8r'yy	.	8r'yy	.	8r'yy	.
.	.	.	.	.	.	.	.	.	.	((16ddd-XLL	.	.	.	.	.	8ryy	.	8ryy	.	8ryy	.	8ryy	.
.	.	.	.	.	.	.	.	.	.	16eee-X	.	.	.	.	.	.	.	.	.	.	.	.	.
.	.	.	.	.	.	.	.	.	.	16ggg-X	.	.	.	.	.	8ryy	.	8ryy	.	8ryy	.	8ryy	.
.	.	.	.	.	.	.	.	.	.	16eee-JJ	.	.	.	.	.	.	.	.	.	.	.	.	.
=3	=3	=3	=3	=3	=3	=3	=3	=3	=3	=3	=3	=3	=3	=3	=3	=3	=3	=3	=3	=3	=3	=3	=3
2ryy	.	2ryy	.	2ryy	.	2r	.	2r	.	8ddd-XL)	.	2ryy	.	2ryy	.	8r'yy	.	8r'yy	.	8r'yy	.	8r'yy	.
.	.	.	.	.	.	.	.	.	.	8bb-X'	.	.	.	.	.	8ryy	.	8ryy	.	8ryy	.	8ryy	.
.	.	.	.	.	.	.	.	.	.	8aa-X'	.	.	.	.	.	8ryy	.	8ryy	.	8ryy	.	8ryy	.
.	.	.	.	.	.	.	.	.	.	8ee-X'J)	.	.	.	.	.	8r'yy	.	8r'yy	.	8r'yy	.	8r'yy	.
=4	=4	=4	=4	=4	=4	=4	=4	=4	=4	=4	=4	=4	=4	=4	=4	=4	=4	=4	=4	=4	=4	=4	=4
2ryy	.	2ryy	.	2ryy	.	2r	.	2r	.	8aa-XL	.	2ryy	.	2ryy	.	8ryy	.	8ryy	.	8ryy	.	8ryy	.
.	.	.	.	.	.	.	.	.	.	((16aa-L	.	.	.	.	.	8ryy	.	8ryy	.	8ryy	.	8ryy	.
.	.	.	.	.	.	.	.	.	.	16ee-XJJ	.	.	.	.	.	.	.	.	.	.	.	.	.
.	.	.	.	.	.	.	.	.	.	8dd-XL)	.	.	.	.	.	8r'yy	.	8r'yy	.	8r'yy	.	8r'yy	.
.	.	.	.	.	.	.	.	.	.	8a-X'J)	.	.	.	.	.	8ryy	.	8ryy	.	8ryy	.	8ryy	.
=5	=5	=5	=5	=5	=5	=5	=5	=5	=5	=5	=5	=5	=5	=5	=5	=5	=5	=5	=5	=5	=5	=5	=5
2ryy	.	2ryy	.	2ryy	.	2r	.	2r	.	(16b-XLL	.	2ryy	.	2ryy	.	8ryy	.	8ryy	.	8ryy	.	8ryy	.
.	.	.	.	.	.	.	.	.	.	16a-X	.	.	.	.	.	.	.	.	.	.	.	.	.
.	.	.	.	.	.	.	.	.	.	16b-	.	.	.	.	.	8r'yy	.	8r'yy	.	8r'yy	.	8r'yy	.
.	.	.	.	.	.	.	.	.	.	16dd-XJJ	.	.	.	.	.	.	.	.	.	.	.	.	.
.	.	.	.	.	.	.	.	.	.	[4b-)	.	.	.	.	.	8ryy	.	8ryy	.	8ryy	.	8ryy	.
.	.	.	.	.	.	.	.	.	.	.	.	.	.	.	.	8ryy	.	8ryy	.	8ryy	.	8ryy	.
=6	=6	=6	=6	=6	=6	=6	=6	=6	=6	=6	=6	=6	=6	=6	=6	=6	=6	=6	=6	=6	=6	=6	=6
2ryy	.	2ryy	.	2ryy	.	2r	.	2r	.	8b-L]	4ryy	2ryy	.	8r'yy	.	8r'yy	.	8r'yy	.	8r'yy	.	8r'yy	.
.	.	.	.	.	.	.	.	.	.	((16anL	.	.	.	8ryy	4ryy	8ryy	4ryy	8ryy	4ryy	8ryy	4ryy	8ryy	4ryy
.	.	.	.	.	.	.	.	.	.	16bnJJ	.	.	.	.	.	.	.	.	.	.	.	.	.
.	.	.	.	.	.	.	.	.	.	8ddnL)	.	.	.	8ryy	.	8ryy	.	8ryy	.	8ryy	.	8ryy	.
.	.	.	.	.	.	.	.	.	.	8ee'J)	.	.	.	8r'yy	.	8r'yy	.	8r'yy	.	8r'yy	.	8r'yy	.
=7	=7	=7	=7	=7	=7	=7	=7	=7	=7	=7	=7	=7	=7	=7	=7	=7	=7	=7	=7	=7	=7	=7	=7
2ryy	.	2ryy	.	2ryy	.	2r	.	2r	.	8ggL	.	2ryy	.	8ryy	.	8ryy	.	8ryy	.	8ryy	.	8ryy	.
.	.	.	.	.	.	.	.	.	.	((16ddL	.	.	.	8ryy	.	8ryy	.	8ryy	.	8ryy	.	8ryy	.
.	.	.	.	.	.	.	.	.	.	16eeJJ	.	.	.	.	.	.	.	.	.	.	.	.	.
.	.	.	.	.	.	.	.	.	.	8ggL)	.	.	.	8r'yy	.	8r'yy	.	8r'yy	.	8r'yy	.	8r'yy	.
.	.	.	.	.	.	.	.	.	.	8aa'J)	.	.	.	8ryy	.	8ryy	.	8ryy	.	8ryy	.	8ryy	.
=8	=8	=8	=8	=8	=8	=8	=8	=8	=8	=8	=8	=8	=8	=8	=8	=8	=8	=8	=8	=8	=8	=8	=8
2ryy	.	2ryy	.	2ryy	.	2r	.	2r	.	8cccL	.	2ryy	.	8ryy	.	8ryy	.	8ryy	.	8ryy	.	8ryy	.
.	.	.	.	.	.	.	.	.	.	((16ggL	.	.	.	8r'yy	4ryy	8r'yy	4ryy	8r'yy	4ryy	8r'yy	4ryy	8r'yy	4ryy
.	.	.	.	.	.	.	.	.	.	16aaJJ	.	.	.	.	.	.	.	.	.	.	.	.	.
.	.	.	.	.	.	.	.	.	.	8cccL)	.	.	.	8ryy	.	8ryy	.	8ryy	.	8ryy	.	8ryy	.
.	.	.	.	.	.	.	.	.	.	8ddd'J)	4ryy	.	.	8ryy	.	8ryy	.	8ryy	.	8ryy	.	8ryy	.
=9	=9	=9	=9	=9	=9	=9	=9	=9	=9	=9	=9	=9	=9	=9	=9	=9	=9	=9	=9	=9	=9	=9	=9
2ryy	.	2ryy	.	2ryy	.	2r	.	2r	.	(16fffLL	.	2ryy	.	8r'yy	.	8r'yy	.	8r'yy	.	8r'yy	.	8r'yy	.
.	.	.	.	.	.	.	.	.	.	16eee	.	.	.	.	.	.	.	.	.	.	.	.	.
.	.	.	.	.	.	.	.	.	.	16fff	.	.	.	8ryy	4ryy	8ryy	4ryy	8ryy	4ryy	8ryy	4ryy	8ryy	4ryy
.	.	.	.	.	.	.	.	.	.	16eeeJJ)	.	.	.	.	.	.	.	.	.	.	.	.	.
.	.	.	.	.	.	.	.	.	.	[4eee-X	.	.	.	8ryy	.	8ryy	.	8ryy	.	8ryy	.	8ryy	.
.	.	.	.	.	.	.	.	.	.	.	.	.	.	8r'yy	.	8r'yy	.	8r'yy	.	8r'yy	.	8r'yy	.
=10	=10	=10	=10	=10	=10	=10	=10	=10	=10	=10	=10	=10	=10	=10	=10	=10	=10	=10	=10	=10	=10	=10	=10
2ryy	.	2ryy	.	2ryy	.	4r	.	4r	.	8eee-L]	.	2ryy	.	8ryy	.	8ryy	.	8ryy	.	8ryy	.	8ryy	.
.	.	.	.	.	.	.	.	.	.	(8aaa-X	.	.	.	8ryy	.	8ryy	.	8ryy	.	8ryy	.	8ryy	.
.	.	.	.	.	.	8r	.	8r	.	8fff)	.	.	.	4ryy	4ryy	4ryy	4ryy	4ryy	4ryy	4ryy	4ryy	4ryy	4ryy
.	.	.	.	.	.	(8a-X	4ryy	(8aa-X	4ryy	8eee-XJ	.	.	.	.	.	.	.	.	.	.	.	.	.
=11	=11	=11	=11	=11	=11	=11	=11	=11	=11	=11	=11	=11	=11	=11	=11	=11	=11	=11	=11	=11	=11	=11	=11
2ryy	.	2ryy	.	2ryy	.	8fL)	.	8ffL)	.	8dddnL	.	2ryy	.	2ryy	.	2ryy	.	2ryy	.	2ryy	.	2ryy	.
.	.	.	.	.	.	((8e-X	.	((8ee-X	.	((8fff	.	.	.	.	.	.	.	.	.	.	.	.	.
.	.	.	.	.	.	8dn)	.	8ddn)	.	8ccc)	.	.	.	.	.	.	.	.	.	.	.	.	.
.	.	.	.	.	.	8f'J)	.	8ff'J)	.	8bbn'J)	.	.	.	.	.	.	.	.	.	.	.	.	.
*	*	*	*	*	*	*	*	*	*	*	*	*	*	*clefF4	*	*clefF4	*	*	*	*	*	*	*
=12	=12	=12	=12	=12	=12	=12	=12	=12	=12	=12	=12	=12	=12	=12	=12	=12	=12	=12	=12	=12	=12	=12	=12
2ryy	.	4ryy	.	2ryy	.	(8cL	.	(8ccL	.	4.bb-X	.	2ryy	.	4ryy	.	4ryy	.	2ryy	.	2ryy	.	2ryy	.
.	.	.	.	.	.	8d-XJ)	.	8dd-XJ)	.	.	.	.	.	.	.	.	.	.	.	.	.	.	.
!	!	!LO:TX:a:t=pizz.	!	!	!	!	!	!	!	!	!	!	!	!	!	!	!	!	!	!	!	!	!
.	.	8ryy	4ryy	.	.	8r	.	8r	.	.	.	.	.	8ryy	4ryy	8ryy	4ryy	.	.	.	.	.	.
.	.	8ryy	.	.	.	8c	.	8cc	.	((8bb-	4ryy	.	.	8ryy	.	8ryy	.	.	.	.	.	.	.
=13	=13	=13	=13	=13	=13	=13	=13	=13	=13	=13	=13	=13	=13	=13	=13	=13	=13	=13	=13	=13	=13	=13	=13
2ryy	.	8ryy	.	2ryy	.	(8B-XL	4ryy	(8b-XL	4ryy	4.aa-X)	.	2ryy	.	8ryy	.	8ryy	.	2ryy	.	2ryy	.	2ryy	.
.	.	8ryy	.	.	.	8cJ)	.	8ccJ)	.	.	.	.	.	8ryy	.	8ryy	.	.	.	.	.	.	.
.	.	8ryy	.	.	.	8r	.	8r	.	.	.	.	.	8ryy	.	8ryy	.	.	.	.	.	.	.
.	.	8ryy	.	.	.	8B-	4ryy	8b-	4ryy	8aa-')	4ryy	.	.	8ryy	.	8ryy	.	.	.	.	.	.	.
*	*	*	*	*	*	*	*	*	*	*	*	*	*	*clefC4	*	*clefC4	*	*	*	*	*	*	*
=14	=14	=14	=14	=14	=14	=14	=14	=14	=14	=14	=14	=14	=14	=14	=14	=14	=14	=14	=14	=14	=14	=14	=14
!	!	!LO:TX:a:t=arco	!	!	!	!	!	!	!	!	!	!	!	!	!	!	!	!	!	!	!	!	!
*	*	*grp:B	*	*	*	*	*	*	*	*	*	*	*	*	*	*	*	*	*	*	*	*	*
2ryy	.	(4d-X	4ryy	2ryy	.	8A-X	4ryy	8a-X	4ryy	[2ddd-X	4ryy	8ryy	4ryy	8ryy	4ryy	8ryy	4ryy	8ryy	4ryy	8ryy	4ryy	8ryy	4ryy
.	.	.	.	.	.	8r	.	8r	.	.	.	8ryy	.	8ryy	.	8ryy	.	8ryy	.	8ryy	.	8ryy	.
.	.	4B-X	.	.	.	4r	.	4r	.	.	.	8ryy	.	4ryy	.	8ryy	.	8ryy	.	8ryy	.	8ryy	.
.	.	.	.	.	.	.	.	.	.	.	.	8ryy	.	.	.	8ryy	.	8ryy	.	8ryy	.	8ryy	.
=15	=15	=15	=15	=15	=15	=15	=15	=15	=15	=15	=15	=15	=15	=15	=15	=15	=15	=15	=15	=15	=15	=15	=15
2ryy	.	4A-X	.	2ryy	.	2r	.	2r	.	4ddd-]	.	8ryy	.	2ryy	.	8ryy	.	8ryy	.	8ryy	.	8ryy	.
.	.	.	.	.	.	.	.	.	.	.	.	8ryy	.	.	.	8r'yy	.	8r'yy	.	8r'yy	.	8r'yy	.
.	.	4G-X)	.	.	.	.	.	.	.	((16ddd-XLL	.	4ryy	.	.	.	8ryy	.	8ryy	.	8ryy	.	8ryy	.
.	.	.	.	.	.	.	.	.	.	16eee-X	.	.	.	.	.	.	.	.	.	.	.	.	.
.	.	.	.	.	.	.	.	.	.	16ggg-X	.	.	.	.	.	8ryy	.	8ryy	.	8ryy	.	8ryy	.
.	.	.	.	.	.	.	.	.	.	16eee-JJ	.	.	.	.	.	.	.	.	.	.	.	.	.
=16	=16	=16	=16	=16	=16	=16	=16	=16	=16	=16	=16	=16	=16	=16	=16	=16	=16	=16	=16	=16	=16	=16	=16
2ryy	.	(4E-X	.	2ryy	.	2r	.	2r	.	8ddd-X'L)	.	2ryy	.	2ryy	.	8r'yy	.	8r'yy	.	8r'yy	.	8r'yy	.
.	.	.	.	.	.	.	.	.	.	8bb-X'	.	.	.	.	.	8ryy	.	8ryy	.	8ryy	.	8ryy	.
.	.	4D-X)	.	.	.	.	.	.	.	8aa-X'	.	.	.	.	.	8ryy	.	8ryy	.	8ryy	.	8ryy	.
.	.	.	.	.	.	.	.	.	.	8ee-X'J)	.	.	.	.	.	8r'yy	.	8r'yy	.	8r'yy	.	8r'yy	.
=	=	=	=	=	=	=	=	=	=	=	=	=	=	=	=	=	=	=	=	=	=	=	=
*-	*-	*-	*-	*-	*-	*-	*-	*-	*-	*-	*-	*-	*-	*-	*-	*-	*-	*-	*-	*-	*-	*-	*-
!!!system-decoration: [([(s1,s2)]s3[(s4,s5)])]s6,s7[([(s8,s9)]s10,s11,s12)]
